img/icons/calendar-2.svg

<svg xmlns="http://www.w3.org/2000/svg" width="55" height="55" viewBox="0 0 55 55"><g transform="translate(0 0)"><g transform="translate(0 0)"><g transform="translate(55 21)"><g transform="translate(-55 -21)"><path d="M48.554,4.3h-2.58V0H41.683V4.3H13.322V0h-4.3V4.3H6.446A6.454,6.454,0,0,0,0,10.742V48.554A6.451,6.451,0,0,0,6.446,55H48.554A6.451,6.451,0,0,0,55,48.554V10.742A6.454,6.454,0,0,0,48.554,4.3ZM50.7,48.554a2.149,2.149,0,0,1-2.147,2.152H6.446A2.155,2.155,0,0,1,4.3,48.554V20.209h46.41Zm0-32.657H4.3V10.742a2.155,2.155,0,0,1,2.15-2.15H9.023v4.3h4.3v-4.3H41.683v4.3h4.3v-4.3h2.575a2.152,2.152,0,0,1,2.147,2.15Z" fill="#0f1d5b"/><rect width="4.296" height="4.296" transform="translate(8.165 24.707)" fill="#0f1d5b"/><rect width="4.296" height="4.296" transform="translate(16.76 24.707)" fill="#0f1d5b"/><rect width="4.296" height="4.296" transform="translate(25.353 24.707)" fill="#0f1d5b"/><rect width="4.296" height="4.296" transform="translate(33.949 24.707)" fill="#0f1d5b"/><rect width="4.296" height="4.296" transform="translate(42.541 24.707)" fill="#0f1d5b"/><rect width="4.296" height="4.296" transform="translate(8.165 33.303)" fill="#0f1d5b"/><rect width="4.296" height="4.296" transform="translate(16.76 33.303)" fill="#0f1d5b"/><rect width="4.296" height="4.296" transform="translate(25.353 33.303)" fill="#0f1d5b"/><rect width="4.296" height="4.296" transform="translate(33.949 33.303)" fill="#0f1d5b"/><rect width="4.296" height="4.296" transform="translate(8.165 41.898)" fill="#0f1d5b"/><rect width="4.296" height="4.296" transform="translate(16.76 41.898)" fill="#0f1d5b"/><rect width="4.296" height="4.296" transform="translate(25.353 41.898)" fill="#0f1d5b"/><rect width="4.296" height="4.296" transform="translate(33.949 41.898)" fill="#0f1d5b"/><rect width="4.296" height="4.296" transform="translate(42.541 33.303)" fill="#0f1d5b"/></g></g></g></g></svg>

<?xml version="1.0" encoding="utf-8"?>
<!-- Generator: Adobe Illustrator 25.3.1, SVG Export Plug-In . SVG Version: 6.00 Build 0)  -->
<svg version="1.1" id="Layer_1" xmlns="http://www.w3.org/2000/svg" xmlns:xlink="http://www.w3.org/1999/xlink" x="0px" y="0px"
	 viewBox="0 0 55 55" style="enable-background:new 0 0 55 55;" xml:space="preserve">
<style type="text/css">
	.st0{fill:#0F1D5B;}
</style>
<g transform="translate(0 0)">
	<g transform="translate(0 0)">
		<g transform="translate(55 21)">
			<g transform="translate(-55 -21)">
				<path class="st0" d="M48.6,4.3H46V0h-4.3v4.3H13.3V0H9v4.3H6.4C2.9,4.3,0,7.2,0,10.7v37.8C0,52.1,2.9,55,6.4,55h42.1
					c3.6,0,6.4-2.9,6.4-6.4V10.7C55,7.2,52.1,4.3,48.6,4.3z M50.7,48.6c0,1.2-1,2.2-2.1,2.2c0,0,0,0,0,0H6.4c-1.2,0-2.1-1-2.1-2.2
					V20.2h46.4L50.7,48.6z M50.7,15.9H4.3v-5.2c0-1.2,1-2.1,2.2-2.2H9v4.3h4.3V8.6h28.4v4.3H46V8.6h2.6c1.2,0,2.1,1,2.1,2.1
					L50.7,15.9z"/>
				<rect x="8.2" y="24.7" class="st0" width="4.3" height="4.3"/>
				<rect x="16.8" y="24.7" class="st0" width="4.3" height="4.3"/>
				<rect x="25.4" y="24.7" class="st0" width="4.3" height="4.3"/>
				<rect x="33.9" y="24.7" class="st0" width="4.3" height="4.3"/>
				<rect x="42.5" y="24.7" class="st0" width="4.3" height="4.3"/>
				<rect x="8.2" y="33.3" class="st0" width="4.3" height="4.3"/>
				<rect x="16.8" y="33.3" class="st0" width="4.3" height="4.3"/>
				<rect x="25.4" y="33.3" class="st0" width="4.3" height="4.3"/>
				<rect x="33.9" y="33.3" class="st0" width="4.3" height="4.3"/>
				<rect x="8.2" y="41.9" class="st0" width="4.3" height="4.3"/>
				<rect x="16.8" y="41.9" class="st0" width="4.3" height="4.3"/>
				<rect x="25.4" y="41.9" class="st0" width="4.3" height="4.3"/>
				<rect x="33.9" y="41.9" class="st0" width="4.3" height="4.3"/>
				<rect x="42.5" y="33.3" class="st0" width="4.3" height="4.3"/>
			</g>
		</g>
	</g>
</g>
</svg>
